icons/modern/top-hat.svg

<svg width="32" height="32" viewBox="0 0 32 32" fill="none" xmlns="http://www.w3.org/2000/svg">
<g filter="url(#filter0_ii_18_17508)">
<path d="M2.21875 23.0312C2.21875 19.7175 5.18629 17.0312 8.5 17.0312H23.4844C26.7981 17.0312 29.7812 19.7175 29.7812 23.0312V23.9688C29.7812 27.2825 27.1094 29.9688 23.3438 29.9688H8.79688C4.98438 29.9688 2.21875 27.2825 2.21875 23.9688V23.0312Z" fill="url(#paint0_linear_18_17508)"/>
</g>
<g filter="url(#filter1_f_18_17508)">
<path d="M7.24023 17.4688L7.56775 23.0204C7.66129 24.6059 8.8593 25.8438 11.0468 25.8438H21.0781C23.1562 25.8438 24.3073 24.6059 24.4009 23.0204L24.7284 17.4688H7.24023Z" fill="#3A1333"/>
</g>
<g filter="url(#filter2_i_18_17508)">
<path d="M11.0469 25.5937C8.85944 25.5937 7.66142 24.3559 7.56789 22.7704L6.78132 9.4375C6.72662 8.33593 6.77195 6.15938 7.85945 5.04688C8.94391 3.93748 9.89319 3.93749 10.681 3.9375H21.2879C22.0757 3.93749 23.025 3.93748 24.1094 5.04688C25.1969 6.15938 25.2423 8.33593 25.1876 9.4375L24.401 22.7704C24.3075 24.3559 23.1563 25.5937 21.0782 25.5937H11.0469Z" fill="url(#paint1_linear_18_17508)"/>
<path d="M11.0469 25.5937C8.85944 25.5937 7.66142 24.3559 7.56789 22.7704L6.78132 9.4375C6.72662 8.33593 6.77195 6.15938 7.85945 5.04688C8.94391 3.93748 9.89319 3.93749 10.681 3.9375H21.2879C22.0757 3.93749 23.025 3.93748 24.1094 5.04688C25.1969 6.15938 25.2423 8.33593 25.1876 9.4375L24.401 22.7704C24.3075 24.3559 23.1563 25.5937 21.0782 25.5937H11.0469Z" fill="url(#paint2_radial_18_17508)"/>
</g>
<g filter="url(#filter3_i_18_17508)">
<path d="M7.36426 19.321C7.87285 20.5799 9.2011 21.7187 11.0468 21.7187H21.078C22.8721 21.7187 24.135 20.6112 24.6023 19.3564L24.4009 22.7704C24.3073 24.3558 23.1562 25.5937 21.078 25.5937H11.0468C8.8593 25.5937 7.66128 24.3558 7.56775 22.7704L7.36426 19.321Z" fill="url(#paint3_linear_18_17508)"/>
<path d="M7.36426 19.321C7.87285 20.5799 9.2011 21.7187 11.0468 21.7187H21.078C22.8721 21.7187 24.135 20.6112 24.6023 19.3564L24.4009 22.7704C24.3073 24.3558 23.1562 25.5937 21.078 25.5937H11.0468C8.8593 25.5937 7.66128 24.3558 7.56775 22.7704L7.36426 19.321Z" fill="url(#paint4_radial_18_17508)"/>
<path d="M7.36426 19.321C7.87285 20.5799 9.2011 21.7187 11.0468 21.7187H21.078C22.8721 21.7187 24.135 20.6112 24.6023 19.3564L24.4009 22.7704C24.3073 24.3558 23.1562 25.5937 21.078 25.5937H11.0468C8.8593 25.5937 7.66128 24.3558 7.56775 22.7704L7.36426 19.321Z" fill="url(#paint5_radial_18_17508)"/>
<path d="M7.36426 19.321C7.87285 20.5799 9.2011 21.7187 11.0468 21.7187H21.078C22.8721 21.7187 24.135 20.6112 24.6023 19.3564L24.4009 22.7704C24.3073 24.3558 23.1562 25.5937 21.078 25.5937H11.0468C8.8593 25.5937 7.66128 24.3558 7.56775 22.7704L7.36426 19.321Z" fill="url(#paint6_linear_18_17508)"/>
</g>
<g filter="url(#filter4_f_18_17508)">
<rect x="8.71143" y="7.875" width="14.5772" height="1.8125" fill="#574965"/>
</g>
<g filter="url(#filter5_f_18_17508)">
<path d="M21.4375 20.75L22 5.15625C24.05 5.15625 24.3542 7.19792 24.25 8.21875L23.8125 19.0625C23.3625 20.1625 22.0417 20.6458 21.4375 20.75Z" fill="url(#paint7_linear_18_17508)"/>
</g>
<defs>
<filter id="filter0_ii_18_17508" x="1.71875" y="16.5312" width="28.0625" height="13.4375" filterUnits="userSpaceOnUse" color-interpolation-filters="sRGB">
<feFlood flood-opacity="0" result="BackgroundImageFix"/>
<feBlend mode="normal" in="SourceGraphic" in2="BackgroundImageFix" result="shape"/>
<feColorMatrix in="SourceAlpha" type="matrix" values="0 0 0 0 0 0 0 0 0 0 0 0 0 0 0 0 0 0 127 0" result="hardAlpha"/>
<feOffset dx="-0.5" dy="-0.5"/>
<feGaussianBlur stdDeviation="0.25"/>
<feComposite in2="hardAlpha" operator="arithmetic" k2="-1" k3="1"/>
<feColorMatrix type="matrix" values="0 0 0 0 0.443137 0 0 0 0 0.396078 0 0 0 0 0.490196 0 0 0 1 0"/>
<feBlend mode="normal" in2="shape" result="effect1_innerShadow_18_17508"/>
<feColorMatrix in="SourceAlpha" type="matrix" values="0 0 0 0 0 0 0 0 0 0 0 0 0 0 0 0 0 0 127 0" result="hardAlpha"/>
<feOffset dx="-0.25" dy="-0.25"/>
<feGaussianBlur stdDeviation="0.25"/>
<feComposite in2="hardAlpha" operator="arithmetic" k2="-1" k3="1"/>
<feColorMatrix type="matrix" values="0 0 0 0 0.27451 0 0 0 0 0.160784 0 0 0 0 0.380392 0 0 0 1 0"/>
<feBlend mode="normal" in2="effect1_innerShadow_18_17508" result="effect2_innerShadow_18_17508"/>
</filter>
<filter id="filter1_f_18_17508" x="6.24023" y="16.4688" width="19.488" height="10.375" filterUnits="userSpaceOnUse" color-interpolation-filters="sRGB">
<feFlood flood-opacity="0" result="BackgroundImageFix"/>
<feBlend mode="normal" in="SourceGraphic" in2="BackgroundImageFix" result="shape"/>
<feGaussianBlur stdDeviation="0.5" result="effect1_foregroundBlur_18_17508"/>
</filter>
<filter id="filter2_i_18_17508" x="6.7666" y="3.9375" width="20.4358" height="21.6562" filterUnits="userSpaceOnUse" color-interpolation-filters="sRGB">
<feFlood flood-opacity="0" result="BackgroundImageFix"/>
<feBlend mode="normal" in="SourceGraphic" in2="BackgroundImageFix" result="shape"/>
<feColorMatrix in="SourceAlpha" type="matrix" values="0 0 0 0 0 0 0 0 0 0 0 0 0 0 0 0 0 0 127 0" result="hardAlpha"/>
<feOffset dx="2"/>
<feGaussianBlur stdDeviation="1.5"/>
<feComposite in2="hardAlpha" operator="arithmetic" k2="-1" k3="1"/>
<feColorMatrix type="matrix" values="0 0 0 0 0.270588 0 0 0 0 0.247059 0 0 0 0 0.301961 0 0 0 1 0"/>
<feBlend mode="normal" in2="shape" result="effect1_innerShadow_18_17508"/>
</filter>
<filter id="filter3_i_18_17508" x="7.36426" y="19.321" width="17.238" height="6.47271" filterUnits="userSpaceOnUse" color-interpolation-filters="sRGB">
<feFlood flood-opacity="0" result="BackgroundImageFix"/>
<feBlend mode="normal" in="SourceGraphic" in2="BackgroundImageFix" result="shape"/>
<feColorMatrix in="SourceAlpha" type="matrix" values="0 0 0 0 0 0 0 0 0 0 0 0 0 0 0 0 0 0 127 0" result="hardAlpha"/>
<feOffset dy="0.2"/>
<feGaussianBlur stdDeviation="0.1"/>
<feComposite in2="hardAlpha" operator="arithmetic" k2="-1" k3="1"/>
<feColorMatrix type="matrix" values="0 0 0 0 0.858824 0 0 0 0 0.12549 0 0 0 0 0.317647 0 0 0 1 0"/>
<feBlend mode="normal" in2="shape" result="effect1_innerShadow_18_17508"/>
</filter>
<filter id="filter4_f_18_17508" x="7.21143" y="6.375" width="17.5771" height="4.8125" filterUnits="userSpaceOnUse" color-interpolation-filters="sRGB">
<feFlood flood-opacity="0" result="BackgroundImageFix"/>
<feBlend mode="normal" in="SourceGraphic" in2="BackgroundImageFix" result="shape"/>
<feGaussianBlur stdDeviation="0.75" result="effect1_foregroundBlur_18_17508"/>
</filter>
<filter id="filter5_f_18_17508" x="19.9375" y="3.65625" width="5.83032" height="18.5938" filterUnits="userSpaceOnUse" color-interpolation-filters="sRGB">
<feFlood flood-opacity="0" result="BackgroundImageFix"/>
<feBlend mode="normal" in="SourceGraphic" in2="BackgroundImageFix" result="shape"/>
<feGaussianBlur stdDeviation="0.75" result="effect1_foregroundBlur_18_17508"/>
</filter>
<linearGradient id="paint0_linear_18_17508" x1="16" y1="17.0312" x2="16" y2="27.5625" gradientUnits="userSpaceOnUse">
<stop offset="0.210682" stop-color="#333135"/>
<stop offset="1" stop-color="#523B5E"/>
</linearGradient>
<linearGradient id="paint1_linear_18_17508" x1="15.9844" y1="3.9375" x2="15.9844" y2="25.5937" gradientUnits="userSpaceOnUse">
<stop offset="0.421356" stop-color="#534262"/>
<stop offset="1" stop-color="#43354B"/>
</linearGradient>
<radialGradient id="paint2_radial_18_17508" cx="0" cy="0" r="1" gradientUnits="userSpaceOnUse" gradientTransform="translate(24.8751 20.9375) rotate(-86.0321) scale(10.8385 4.69356)">
<stop stop-color="#4C4653"/>
<stop offset="1" stop-color="#4C4653" stop-opacity="0"/>
</radialGradient>
<linearGradient id="paint3_linear_18_17508" x1="10.3749" y1="21.1874" x2="22.7499" y2="24.9999" gradientUnits="userSpaceOnUse">
<stop stop-color="#EB3469"/>
<stop offset="1" stop-color="#E12E84"/>
</linearGradient>
<radialGradient id="paint4_radial_18_17508" cx="0" cy="0" r="1" gradientUnits="userSpaceOnUse" gradientTransform="translate(20.4687 21.0937) rotate(90) scale(2.75 11.4063)">
<stop stop-color="#FE4F93"/>
<stop offset="1" stop-color="#FE4F93" stop-opacity="0"/>
</radialGradient>
<radialGradient id="paint5_radial_18_17508" cx="0" cy="0" r="1" gradientUnits="userSpaceOnUse" gradientTransform="translate(22.4374 20.3124) rotate(90) scale(4.71875 7.16957)">
<stop stop-color="#FF4C99"/>
<stop offset="1" stop-color="#FF4C99" stop-opacity="0"/>
</radialGradient>
<linearGradient id="paint6_linear_18_17508" x1="7.36426" y1="23.4062" x2="11.3749" y2="23.4062" gradientUnits="userSpaceOnUse">
<stop stop-color="#BA2D43"/>
<stop offset="1" stop-color="#BA2D43" stop-opacity="0"/>
</linearGradient>
<linearGradient id="paint7_linear_18_17508" x1="23.5938" y1="5.15625" x2="22.8526" y2="20.75" gradientUnits="userSpaceOnUse">
<stop stop-color="#70657C"/>
<stop offset="1" stop-color="#4D4455"/>
</linearGradient>
</defs>
</svg>

<svg width="32" height="32" fill="none" xmlns="http://www.w3.org/2000/svg"><g filter="url(#a)"><path d="M2.219 23.031c0-3.313 2.967-6 6.281-6h14.984c3.314 0 6.297 2.687 6.297 6v.938c0 3.313-2.672 6-6.437 6H8.797c-3.813 0-6.578-2.687-6.578-6v-.938Z" fill="url(#b)"/></g><g filter="url(#c)"><path d="m7.24 17.469.328 5.551c.093 1.586 1.291 2.824 3.479 2.824h10.031c2.078 0 3.23-1.238 3.323-2.824l.327-5.551H7.24Z" fill="#3A1333"/></g><g filter="url(#d)"><path d="M11.047 25.594c-2.188 0-3.386-1.238-3.48-2.824L6.782 9.438c-.054-1.102-.009-3.279 1.078-4.391 1.085-1.11 2.034-1.11 2.822-1.11h10.607c.788 0 1.737 0 2.821 1.11 1.088 1.112 1.133 3.289 1.079 4.39L24.4 22.77c-.093 1.586-1.245 2.824-3.323 2.824H11.047Z" fill="url(#e)"/><path d="M11.047 25.594c-2.188 0-3.386-1.238-3.48-2.824L6.782 9.438c-.054-1.102-.009-3.279 1.078-4.391 1.085-1.11 2.034-1.11 2.822-1.11h10.607c.788 0 1.737 0 2.821 1.11 1.088 1.112 1.133 3.289 1.079 4.39L24.4 22.77c-.093 1.586-1.245 2.824-3.323 2.824H11.047Z" fill="url(#f)"/></g><g filter="url(#g)"><path d="M7.364 19.321c.509 1.259 1.837 2.398 3.683 2.398h10.031c1.794 0 3.057-1.108 3.524-2.363l-.201 3.414c-.094 1.586-1.245 2.824-3.323 2.824H11.047c-2.188 0-3.386-1.238-3.48-2.824l-.203-3.449Z" fill="url(#h)"/><path d="M7.364 19.321c.509 1.259 1.837 2.398 3.683 2.398h10.031c1.794 0 3.057-1.108 3.524-2.363l-.201 3.414c-.094 1.586-1.245 2.824-3.323 2.824H11.047c-2.188 0-3.386-1.238-3.48-2.824l-.203-3.449Z" fill="url(#i)"/><path d="M7.364 19.321c.509 1.259 1.837 2.398 3.683 2.398h10.031c1.794 0 3.057-1.108 3.524-2.363l-.201 3.414c-.094 1.586-1.245 2.824-3.323 2.824H11.047c-2.188 0-3.386-1.238-3.48-2.824l-.203-3.449Z" fill="url(#j)"/><path d="M7.364 19.321c.509 1.259 1.837 2.398 3.683 2.398h10.031c1.794 0 3.057-1.108 3.524-2.363l-.201 3.414c-.094 1.586-1.245 2.824-3.323 2.824H11.047c-2.188 0-3.386-1.238-3.48-2.824l-.203-3.449Z" fill="url(#k)"/></g><g filter="url(#l)"><path fill="#574965" d="M8.711 7.875h14.577v1.813H8.711z"/></g><g filter="url(#m)"><path d="M21.438 20.75 22 5.156c2.05 0 2.354 2.042 2.25 3.063l-.438 10.844c-.45 1.1-1.77 1.583-2.375 1.687Z" fill="url(#n)"/></g><defs><filter id="a" x="1.719" y="16.531" width="28.063" height="13.438" filterUnits="userSpaceOnUse" color-interpolation-filters="sRGB"><feFlood flood-opacity="0" result="BackgroundImageFix"/><feBlend in="SourceGraphic" in2="BackgroundImageFix" result="shape"/><feColorMatrix in="SourceAlpha" values="0 0 0 0 0 0 0 0 0 0 0 0 0 0 0 0 0 0 127 0" result="hardAlpha"/><feOffset dx="-.5" dy="-.5"/><feGaussianBlur stdDeviation=".25"/><feComposite in2="hardAlpha" operator="arithmetic" k2="-1" k3="1"/><feColorMatrix values="0 0 0 0 0.443137 0 0 0 0 0.396078 0 0 0 0 0.490196 0 0 0 1 0"/><feBlend in2="shape" result="effect1_innerShadow_18_17508"/><feColorMatrix in="SourceAlpha" values="0 0 0 0 0 0 0 0 0 0 0 0 0 0 0 0 0 0 127 0" result="hardAlpha"/><feOffset dx="-.25" dy="-.25"/><feGaussianBlur stdDeviation=".25"/><feComposite in2="hardAlpha" operator="arithmetic" k2="-1" k3="1"/><feColorMatrix values="0 0 0 0 0.27451 0 0 0 0 0.160784 0 0 0 0 0.380392 0 0 0 1 0"/><feBlend in2="effect1_innerShadow_18_17508" result="effect2_innerShadow_18_17508"/></filter><filter id="c" x="6.24" y="16.469" width="19.488" height="10.375" filterUnits="userSpaceOnUse" color-interpolation-filters="sRGB"><feFlood flood-opacity="0" result="BackgroundImageFix"/><feBlend in="SourceGraphic" in2="BackgroundImageFix" result="shape"/><feGaussianBlur stdDeviation=".5" result="effect1_foregroundBlur_18_17508"/></filter><filter id="d" x="6.767" y="3.938" width="20.436" height="21.656" filterUnits="userSpaceOnUse" color-interpolation-filters="sRGB"><feFlood flood-opacity="0" result="BackgroundImageFix"/><feBlend in="SourceGraphic" in2="BackgroundImageFix" result="shape"/><feColorMatrix in="SourceAlpha" values="0 0 0 0 0 0 0 0 0 0 0 0 0 0 0 0 0 0 127 0" result="hardAlpha"/><feOffset dx="2"/><feGaussianBlur stdDeviation="1.5"/><feComposite in2="hardAlpha" operator="arithmetic" k2="-1" k3="1"/><feColorMatrix values="0 0 0 0 0.270588 0 0 0 0 0.247059 0 0 0 0 0.301961 0 0 0 1 0"/><feBlend in2="shape" result="effect1_innerShadow_18_17508"/></filter><filter id="g" x="7.364" y="19.321" width="17.238" height="6.473" filterUnits="userSpaceOnUse" color-interpolation-filters="sRGB"><feFlood flood-opacity="0" result="BackgroundImageFix"/><feBlend in="SourceGraphic" in2="BackgroundImageFix" result="shape"/><feColorMatrix in="SourceAlpha" values="0 0 0 0 0 0 0 0 0 0 0 0 0 0 0 0 0 0 127 0" result="hardAlpha"/><feOffset dy=".2"/><feGaussianBlur stdDeviation=".1"/><feComposite in2="hardAlpha" operator="arithmetic" k2="-1" k3="1"/><feColorMatrix values="0 0 0 0 0.858824 0 0 0 0 0.12549 0 0 0 0 0.317647 0 0 0 1 0"/><feBlend in2="shape" result="effect1_innerShadow_18_17508"/></filter><filter id="l" x="7.211" y="6.375" width="17.577" height="4.813" filterUnits="userSpaceOnUse" color-interpolation-filters="sRGB"><feFlood flood-opacity="0" result="BackgroundImageFix"/><feBlend in="SourceGraphic" in2="BackgroundImageFix" result="shape"/><feGaussianBlur stdDeviation=".75" result="effect1_foregroundBlur_18_17508"/></filter><filter id="m" x="19.938" y="3.656" width="5.83" height="18.594" filterUnits="userSpaceOnUse" color-interpolation-filters="sRGB"><feFlood flood-opacity="0" result="BackgroundImageFix"/><feBlend in="SourceGraphic" in2="BackgroundImageFix" result="shape"/><feGaussianBlur stdDeviation=".75" result="effect1_foregroundBlur_18_17508"/></filter><linearGradient id="b" x1="16" y1="17.031" x2="16" y2="27.563" gradientUnits="userSpaceOnUse"><stop offset=".211" stop-color="#333135"/><stop offset="1" stop-color="#523B5E"/></linearGradient><linearGradient id="e" x1="15.984" y1="3.938" x2="15.984" y2="25.594" gradientUnits="userSpaceOnUse"><stop offset=".421" stop-color="#534262"/><stop offset="1" stop-color="#43354B"/></linearGradient><linearGradient id="h" x1="10.375" y1="21.187" x2="22.75" y2="25" gradientUnits="userSpaceOnUse"><stop stop-color="#EB3469"/><stop offset="1" stop-color="#E12E84"/></linearGradient><linearGradient id="k" x1="7.364" y1="23.406" x2="11.375" y2="23.406" gradientUnits="userSpaceOnUse"><stop stop-color="#BA2D43"/><stop offset="1" stop-color="#BA2D43" stop-opacity="0"/></linearGradient><linearGradient id="n" x1="23.594" y1="5.156" x2="22.853" y2="20.75" gradientUnits="userSpaceOnUse"><stop stop-color="#70657C"/><stop offset="1" stop-color="#4D4455"/></linearGradient><radialGradient id="f" cx="0" cy="0" r="1" gradientUnits="userSpaceOnUse" gradientTransform="matrix(.75 -10.81252 4.6823 .32478 24.875 20.938)"><stop stop-color="#4C4653"/><stop offset="1" stop-color="#4C4653" stop-opacity="0"/></radialGradient><radialGradient id="i" cx="0" cy="0" r="1" gradientUnits="userSpaceOnUse" gradientTransform="matrix(0 2.75 -11.4063 0 20.469 21.094)"><stop stop-color="#FE4F93"/><stop offset="1" stop-color="#FE4F93" stop-opacity="0"/></radialGradient><radialGradient id="j" cx="0" cy="0" r="1" gradientUnits="userSpaceOnUse" gradientTransform="matrix(0 4.71875 -7.16957 0 22.437 20.312)"><stop stop-color="#FF4C99"/><stop offset="1" stop-color="#FF4C99" stop-opacity="0"/></radialGradient></defs></svg>
